X:1016
T:John Doherty's
R:reel
S:Na Mooneys on Youtube
Z:id:hn-reel-1016
M:C|
L:1/8
K:A
A2Ac eAcA | d2fa ecAc | d2fd c2ec | BABc edcB |
~A3c eAcA | dcde fgaf | eagf edcB |1 Aaec A2E2 :|2 Aaec A2ce ||
aece fece | aece fece | aAgA fAec | dcBA G2 (3efg |
aece fece | aece fecd | eagf edcB | Aaec A2ce |
aece fece | aece fece | d2fd c2ec | BABc edcB |
~A3c eAcA | dcde fgaf | eagf edcB | Aaec A2E2 ||

